X:1969
T:Fiou de Lono)
O:england
C:MCTB 1/45
M:3/8
L:1/8
K:C
f2f|ed2|d/e/fe/f/|gag|\
f2f|ed2|d/e/fe/f/|g3:|
|:f>df|ed2|d/e/dB|cde|\
f>df|ed2|d/e/dB|c3:|


